public/hilink-logo.svg

<svg width="72" height="20" viewBox="0 0 72 20" fill="none" xmlns="http://www.w3.org/2000/svg">
<path d="M0.517045 19V1.54545H4.20739V8.74716H11.6989V1.54545H15.3807V19H11.6989V11.7898H4.20739V19H0.517045ZM18.3551 19V5.90909H21.9858V19H18.3551ZM20.179 4.22159C19.6392 4.22159 19.1761 4.04261 18.7898 3.68466C18.4091 3.32102 18.2188 2.88636 18.2188 2.38068C18.2188 1.88068 18.4091 1.4517 18.7898 1.09375C19.1761 0.730113 19.6392 0.548295 20.179 0.548295C20.7188 0.548295 21.179 0.730113 21.5597 1.09375C21.946 1.4517 22.1392 1.88068 22.1392 2.38068C22.1392 2.88636 21.946 3.32102 21.5597 3.68466C21.179 4.04261 20.7188 4.22159 20.179 4.22159Z" fill="#292C27"/>
<path d="M28.5249 1.54545V19H24.8942V1.54545H28.5249ZM31.4332 19V5.90909H35.0639V19H31.4332ZM33.2571 4.22159C32.7173 4.22159 32.2543 4.04261 31.8679 3.68466C31.4872 3.32102 31.2969 2.88636 31.2969 2.38068C31.2969 1.88068 31.4872 1.4517 31.8679 1.09375C32.2543 0.730113 32.7173 0.548295 33.2571 0.548295C33.7969 0.548295 34.2571 0.730113 34.6378 1.09375C35.0241 1.4517 35.2173 1.88068 35.2173 2.38068C35.2173 2.88636 35.0241 3.32102 34.6378 3.68466C34.2571 4.04261 33.7969 4.22159 33.2571 4.22159ZM41.603 11.4318V19H37.9723V5.90909H41.4325V8.21875H41.5859C41.8757 7.45739 42.3615 6.85511 43.0433 6.41193C43.7251 5.96307 44.5518 5.73864 45.5234 5.73864C46.4325 5.73864 47.2251 5.9375 47.9013 6.33523C48.5774 6.73295 49.103 7.30114 49.478 8.03977C49.853 8.77273 50.0405 9.64773 50.0405 10.6648V19H46.4098V11.3125C46.4155 10.5114 46.2109 9.88636 45.7962 9.4375C45.3814 8.98295 44.8104 8.75568 44.0831 8.75568C43.5945 8.75568 43.1626 8.8608 42.7876 9.07102C42.4183 9.28125 42.1286 9.58807 41.9183 9.99148C41.7138 10.3892 41.6087 10.8693 41.603 11.4318ZM56.1918 15.233L56.2003 10.8778H56.7287L60.9219 5.90909H65.0895L59.456 12.4886H58.5952L56.1918 15.233ZM52.902 19V1.54545H56.5327V19H52.902ZM61.0838 19L57.2315 13.2983L59.652 10.733L65.3366 19H61.0838ZM68.9929 19.2216C68.4304 19.2216 67.9474 19.0227 67.544 18.625C67.1463 18.2216 66.9474 17.7386 66.9474 17.1761C66.9474 16.6193 67.1463 16.142 67.544 15.7443C67.9474 15.3466 68.4304 15.1477 68.9929 15.1477C69.5384 15.1477 70.0156 15.3466 70.4247 15.7443C70.8338 16.142 71.0384 16.6193 71.0384 17.1761C71.0384 17.5511 70.9418 17.8949 70.7486 18.2074C70.5611 18.5142 70.3139 18.7614 70.0071 18.9489C69.7003 19.1307 69.3622 19.2216 68.9929 19.2216Z" fill="#30AF5B"/>
</svg>

<svg width="72" height="20" fill="none" xmlns="http://www.w3.org/2000/svg"><path d="M.517 19V1.545h3.69v7.202H11.7V1.545h3.682V19h-3.682v-7.21H4.207V19H.517Zm17.838 0V5.91h3.63V19h-3.63ZM20.18 4.222c-.54 0-1.003-.18-1.39-.537-.38-.364-.57-.799-.57-1.304 0-.5.19-.93.57-1.287.387-.364.85-.546 1.39-.546.54 0 1 .182 1.38.546.387.358.58.787.58 1.287 0 .505-.193.94-.58 1.304-.38.358-.84.537-1.38.537Z" fill="#292C27"/><path d="M28.525 1.545V19h-3.63V1.545h3.63ZM31.433 19V5.91h3.63V19h-3.63Zm1.824-14.778c-.54 0-1.003-.18-1.39-.537-.38-.364-.57-.799-.57-1.304 0-.5.19-.93.57-1.287.387-.364.85-.546 1.39-.546.54 0 1 .182 1.38.546.387.358.58.787.58 1.287 0 .505-.193.94-.58 1.304-.38.358-.84.537-1.38.537Zm8.346 7.21V19h-3.63V5.91h3.46v2.309h.153a3.652 3.652 0 0 1 1.457-1.807c.682-.449 1.509-.673 2.48-.673.91 0 1.702.199 2.378.596.676.398 1.202.966 1.577 1.705.375.733.563 1.608.563 2.625V19H46.41v-7.688c.006-.8-.2-1.426-.614-1.874-.415-.455-.986-.682-1.713-.682-.489 0-.92.105-1.295.315-.37.21-.66.517-.87.92-.204.398-.31.878-.315 1.44Zm14.589 3.801.008-4.355h.529l4.193-4.969h4.168l-5.634 6.58h-.86l-2.404 2.744ZM52.902 19V1.545h3.63V19h-3.63Zm8.182 0-3.853-5.702 2.421-2.565L65.337 19h-4.253Zm7.909.222a1.991 1.991 0 0 1-1.449-.597 1.991 1.991 0 0 1-.597-1.449c0-.557.2-1.034.597-1.432a1.991 1.991 0 0 1 1.449-.596c.545 0 1.023.199 1.432.596.409.398.613.875.613 1.432 0 .375-.096.719-.29 1.031a2.204 2.204 0 0 1-.74.742 1.953 1.953 0 0 1-1.015.273Z" fill="#30AF5B"/></svg>
